packages/core/src/svgs/tokens/branded/MOC.svg

<svg width="24" height="24" viewBox="0 0 24 24" fill="none" xmlns="http://www.w3.org/2000/svg">
<path d="M11.9999 22C17.5228 22 22 17.5228 22 11.9999C22 6.47713 17.5228 2 11.9999 2C6.47714 2 2 6.47713 2 11.9999C2 17.5228 6.47714 22 11.9999 22Z" fill="#9CE3E5"/>
<path d="M22 11.9999C22 14.652 20.9463 17.1956 19.0711 19.0709C17.1957 20.9463 14.652 22 11.9999 22C9.34782 22 6.80427 20.9463 4.92892 19.0709C3.05355 17.1956 2 14.652 2 11.9999H22Z" fill="#4F97A5"/>
<path d="M11.9999 21.375C17.1776 21.375 21.375 17.1776 21.375 12C21.375 6.82232 17.1776 2.625 11.9999 2.625C6.82232 2.625 2.625 6.82232 2.625 12C2.625 17.1776 6.82232 21.375 11.9999 21.375Z" fill="#36C7CE"/>
<path d="M13.0622 21.9375L7.24976 16.375L9.27467 9.71244L11.6122 12.3625L16.1435 7.625L21.9247 13.2501C21.6906 15.0126 21.0061 16.6851 19.9372 18.1063C19.1021 19.1684 18.0643 20.0539 16.8841 20.7116C15.7039 21.3693 14.4048 21.7859 13.0622 21.9375Z" fill="#359BB1"/>
<path d="M21.375 12C21.375 8.71873 17.3311 3.25 11.9999 3.25C6.66874 3.25 2.625 8.24372 2.625 12C2.625 9.5135 3.61271 7.129 5.37086 5.37086C7.12902 3.61271 9.51363 2.625 11.9999 2.625C14.4864 2.625 16.8709 3.61271 18.6291 5.37086C20.3872 7.129 21.375 9.5135 21.375 12Z" fill="#3AB1D3"/>
<path d="M7.48099 11.1438V7.91876H9.53716L11.8873 11.775L14.1997 7.91876H16.3747V11.1438L18.2497 10.8499L18.4998 11.1438V12H16.3747V12.8938L18.2435 12.5999L18.4935 12.8938V13.7688H16.3747V16.6749H14.456L14.206 16.375L14.456 11.1438L11.831 14.7062L9.38098 11.1438V16.6749H7.58099L7.24975 16.375L7.48099 13.7688H5.356L5.12476 13.4688L5.356 12.8938H7.48099V11.9813H5.356L5.12476 11.6875L5.356 11.1438H7.48099Z" fill="#28808E"/>
<path d="M7.24975 10.8499V7.625H9.39979L11.6497 11.3188L13.9498 7.625H16.1373V10.8499H18.2497V11.6875H16.1435V12.5938H18.2497V13.4688H16.1435V16.375H14.206V10.8499L11.6434 14.425L9.14341 10.8499V16.375H7.24975V13.4688H5.12476V12.5938H7.24975V11.6875H5.12476V10.8499H7.24975Z" fill="#EBEBEB"/>
</svg>

<svg xmlns="http://www.w3.org/2000/svg" width="24" height="24" fill="none" viewBox="0 0 24 24">
    <path fill="#9CE3E5" d="M12 22c5.523 0 10-4.477 10-10S17.523 2 12 2 2 6.477 2 12s4.477 10 10 10"/>
    <path fill="#4F97A5" d="M22 12a10 10 0 0 1-20 0z"/>
    <path fill="#36C7CE" d="M12 21.375a9.375 9.375 0 1 0 0-18.75 9.375 9.375 0 0 0 0 18.75"/>
    <path fill="#359BB1" d="M13.062 21.938 7.25 16.375l2.025-6.663 2.337 2.65 4.531-4.737 5.782 5.625a10.35 10.35 0 0 1-1.988 4.856 10.2 10.2 0 0 1-6.875 3.831"/>
    <path fill="#3AB1D3" d="M21.375 12c0-3.281-4.044-8.75-9.375-8.75S2.625 8.244 2.625 12a9.375 9.375 0 1 1 18.75 0"/>
    <path fill="#28808E" d="M7.481 11.144V7.919h2.056l2.35 3.856L14.2 7.919h2.175v3.225l1.875-.294.25.294V12h-2.125v.894l1.869-.294.25.294v.875h-2.12v2.906h-1.918l-.25-.3.25-5.231-2.625 3.562-2.45-3.562v5.53h-1.8l-.331-.299.231-2.606H5.356l-.231-.3.231-.575h2.125v-.913H5.356l-.231-.293.231-.544z"/>
    <path fill="#EBEBEB" d="M7.25 10.85V7.625H9.4l2.25 3.694 2.3-3.694h2.187v3.225h2.113v.838h-2.107v.906h2.107v.875h-2.107v2.906h-1.937V10.85l-2.563 3.575-2.5-3.575v5.525H7.25v-2.906H5.125v-.875H7.25v-.906H5.125v-.838z"/>
</svg>
